icon/ir/flash-off.svg

<svg stroke-width="1.5" viewBox="0 0 24 24" fill="none" xmlns="http://www.w3.org/2000/svg" height="1em" width="1em">
  <path d="M7.58537 7.87573L7.28022 11.5983C7.21689 12.302 7.67895 12.9296 8.31226 13C8.3695 13.0053 8.3695 13.0053 8.42693 13.0063L10.9996 13L10.5489 20.6831C10.5366 20.892 10.8127 20.9772 10.9199 20.7974C11.5966 19.6617 12.9824 17.3334 14.2474 15.193" stroke="currentColor" stroke-linecap="round" stroke-linejoin="round"/>
  <path d="M8.5 3H13.5001C13.6275 3 13.7541 3.0235 13.8747 3.06956C14.4766 3.29947 14.7968 4.02807 14.5899 4.69693L13.1009 8.80233L15.8475 8.80235C16.0507 8.80235 16.2503 8.86206 16.4261 8.97543C16.9765 9.33051 17.1637 10.1142 16.8442 10.7259C16.7751 10.8617 16.6018 11.1694 16.3547 11.5983" stroke="currentColor" stroke-linecap="round" stroke-linejoin="round"/>
  <path d="M4 4L20 20" stroke="currentColor" stroke-linecap="round" stroke-linejoin="round"/>
</svg>

<svg width="24" height="24" stroke-width="1.5" fill="none" xmlns="http://www.w3.org/2000/svg"><path d="m7.585 7.876-.305 3.722c-.063.704.399 1.332 1.032 1.402.058.005.058.005.115.006L11 13l-.451 7.683c-.012.209.264.294.37.114.678-1.135 2.063-3.464 3.328-5.604M8.5 3h5c.127 0 .254.023.375.07.602.23.922.958.715 1.627L13.1 8.802h2.748c.203 0 .402.06.578.173.55.356.738 1.14.418 1.75-.069.137-.242.444-.49.873M4 4l16 16" stroke="currentColor" stroke-linecap="round" stroke-linejoin="round"/></svg>
